!!!OTL: Alter Kirmesgesang
!!!ARE: Europa, Mitteleuropa, Deutschland
!!!SCT: A0490
!!!YEM: Copyright 1995, estate of Helmut Schaffrath.
**kern
*ICvox
*Ivox
*M2/4
*k[f#]
*G:
{8d
=1
8.g
16a
8b
8cc
=2
4dd
8b
8r}
=3
{8dd
8dd
8dd
8dd
=4
8dd
16cc
16b
8a}
{16a
16b
=5
8cc
8cc
8b
8b
=6
4a
8g
8r}
=7
{8.g
16a
8b
8a
=8
16g
16a
16b
16cc
8dd
8dd
=9
8ee}
{8dd
8cc
8b
=10
8a
8a
8g}
==
!!!AGN: Romanze, Ballade, Lied
!! Mitgetheilt durch Hohnbaum in Bueschings Woechentl. Nachrichten
!!    4, S. 39.
!!!ONB: ESAC (Essen Associative Code) Database: ALTDEU
!!!AMT: simple duple
!!!AIN: vox
!!!EED: Helmut Schaffrath
!!!EEV: 1.0
*-
